X: 9102
T: Da Slockit Light
R: reel
M: 4/4
K: Dmajor
V:1
FE|"D"D3F A2d2|fedc d2A2|"G"B2d2 "D/F#"A2d2|"G"BAGF "A"EGFE|
V:2
FE|A,3 D F2 A2|dcAG F2 D2|"G" G2 B2 F2 A2|GF ED A,4|
V:1
"D"D3F A2d2|fedc "Bm"d2A2|"G"B2G2 "A"AGFE|"D"D4- D2:|
V:2
A,3D F2 A2|dcAG F2 D2|G,4 A,3C|[A,6D6]:|
V:1
g2|"D"f2a2 "A"e3c|"Bm"d3e "A"dcBA|"D"f2a2 "E"e2^g2|"A"a4- a2=g2|
V:2
g2|d2 A2 c3 E|G4 FEDC|D4 ^G3 E|C2 A,2 B,2 C2|
V:1
"D"f2a2 "A"e3c|"G"d3e "D/F#"dcBA|"G"B2G2 "A"AGFE|"D"D4- D3g|
V:2
D4 A4|G6 GF|G2 B,2 A,B, A,C|DA, B,G, A,4|
V:1
"D"f2 a2 "A"e3c|"G"d3e "D/F#"dcBA|"G"B2d2 "A"A2d2|BAGF "A"EGFE|
V:2
D4 C4|B,6 GF|G2 B2 F2 A2|GFED A,4|
V:1
"D"D3F A2d2|"A"fedc "Bm"d2A2|"G"B2G2 "A"AGFE|"D"D4 D2||
V:2
A,3 D F2 A2|^A4 F2 D2|G,4 A,3 C|[A,4 D2] [A,2 D2]||

